X:1
T:Adagio
T:Adagio
T:uit Orgelalbum 1
T:Jef Tinel (1885-1972)
T:Ad van de Wege
C:Jef Tinel (1885-1972)
Z:Ad van de Wege
%%score { ( 1 4 ) | ( 2 3 5 ) }
L:1/8
M:4/4
K:E
V:1 treble nm="Orgel" snm="Org."
V:4 treble 
V:2 bass 
V:3 bass 
V:5 bass 
V:1
 [GB]4 [FA]2 [GB]2 | c4 (B4 | B2 A2 G2 BA | G2 c2 F2 B2) | A4 G4 | F2 G2 A2 B2 | A4 G4 | %7
 (F4 F2) F2 | d2 cB c2 F2 | d2 cB c2 F2 | f3 e d2 [Cc][DB] |[M:2/4] [EGe]2 [DFd][CEc] | %12
[M:4/4] [B,DB]4!p! (B4 | B2) A=G G2 FE | E2 ^DE [^A,^C=G]2 [B,DF]B, | E2 F2 =G2 A2 | %16
 (B4 B2) ^A F ||[K:E] B3 A G2 AB | c3 d e2 dc | B3 A G2 FE | A2 GF (E4 | %21
"^Ritenuto ....................." (E8) | !fermata!E8) |] %23
V:2
 E2 D2 C2 B,2 | E6 D2 | B,6 C2 | B,2 E2 B,2 D2 | C2 ^B,2 =B,4 | A,2 (=D2 D4) | C2 ^B,2 C2 (=B,2 | %7
 B,2) A,G, A,2 F,2 | [D,F,]2 [E,G,]2 [F,^A,]2 [E,G,][F,A,] | %9
 [D,F,]2 [E,G,]2 [F,^A,]2 [E,G,][F,A,] | B,2 ^A,2 (B,4 |[M:2/4] [C,G,B,]2) [F,,^A,]2 | %12
[M:4/4] [B,,F,]4 z4 | z4 [A,=C]3 [=G,B,] | [=G,B,]2 [F,A,][G,B,] [E,G,]2 [^D,F,]2 | %15
 [=G,,=G,]2 [F,,A,]2 [E,,B,]2 [=D,,=C]2 | B,2 (^C2 (C2) C) F, ||[K:E] (B,4 B,2) A,B, | C3 D E2 F2 | %19
 B,A,B,C B,2 A,G, | C2 B,A, G,2 (A,2 | A,4) G,2 F,2 |"_tijdsduur 1'45''" G,8 |] %23
V:3
 E6 D2 | A,4 B,2 A,2 | G,2 F,2 E,2 A,,2 | B,,2 ^A,,2 =A,,2 A,2 | F,4 C,4 | =D,2 B,,2 A,,2 G,,2 | %6
 C,4 C,,4 | F,,4 F,,2 z2 | (B,,8 | (B,,8) | F,4) F,2 G,2 |[M:2/4] x4 |[M:4/4] x8 | x8 | %14
 (B,,4 B,,3) A,, | x8 | =G,,2 E,,2 (F,,2 F,,) F,, ||[K:E] B,,C,D,B,, E,E,,F,,G,, | %18
 A,,G,,F,,B,, C,2 ^D,2 | E,F,,G,,A,, B,,3 C, | F,,2 B,,2 C,B,, A,,/B,,/C,/D,/ | E,8 | E,,8 |] %23
V:4
 x8 | A2 G2 F4 | E2 D2 E2 GF | E2 G2 D2 F2 | F6 ^E2 | (F4 (F4) | (F4) F2) ^E2 | (C4 C2) F2 | %8
 [DF]2 (([CE]4 [CE]2)) | [DF]2 (([CE]4 [CE]2)) | [DB]2 [E^A]2 [FB]2 G2 |[M:2/4] x4 | %12
[M:4/4] x4 [E=G]2 [=DF]2 | [=CE]3 [B,=D] x4 | x8 | B,2 ^C^D E2 F2 | =G4 (F2 F F) || %17
[K:E] DEFD FE E2 | AB A2 GABA | GDEF FEDC | FE D2 E =D2 C | (B,8 | B,8) |] %23
V:5
 x8 | x8 | x8 | x8 | x8 | x8 | x8 | x8 | x8 | x8 | B,,2 C,2 D,2 E,2 |[M:2/4] x4 |[M:4/4] x8 | x8 | %14
 x8 | x8 | x8 ||[K:E] x8 | x8 | x8 | x8 | x8 | x8 |] %23

